X:40
T:Haunted House
C:Vincent Broderick
R:jig
M:6/8
L:1/8
K:G
G3 AGA | BGE EDE | GBd egd | ege edB |
G3 AGA | BGE EDE | GBd ege | dBA G2D :|
GBd egd | ege edB | GBd ded | ded dBA |
GBd egd | ege edB | GBd ege | dBA G2D |
GBd egd | ege edB | GBd ded | ded dBA |
G3 AGA | BGE EDE | GBd ege | dBA G3 |]
